X: 235
T:Mazurka à Rigal
M:3/4
L:1/8
Q:140
C:trad
O:France
A:Cantal
Z:S.Piron
K:G
E Ac|:e3 efe|c3 efe|B2 Bc dB|c2B2 Ac|
e3 efe|c3 efe|B2 Bd Bc|1A3E Ac:|2A3 E AB|
|:cB cd Bc|A3 BAG|FE Bc dB|c2B2 AB|
cB cd Bc|A3 BAG|FE Bd Bc|1A3 E AB:|2A3 EAc||
W:
W: From "Falaleiro" http://home.t-online.de/home/pheld/homepage.htm

